components-soft-ui/src/assets/icons/logos/google.svg

<svg width="24" height="24" viewBox="0 0 24 24" fill="none" xmlns="http://www.w3.org/2000/svg">
    <g clip-path="url(#clip0_37_68)">
        <path d="M5.31891 14.5036L4.4835 17.6223L1.43011 17.6869C0.517594 15.9944 0 14.0579 0 12.0001C0 10.0102 0.483938 8.13371 1.34175 6.48141H1.34241L4.06078 6.97979L5.25159 9.68185C5.00236 10.4085 4.86652 11.1885 4.86652 12.0001C4.86661 12.881 5.02617 13.725 5.31891 14.5036Z"
              fill="#FBBB00"/>
        <path d="M23.7902 9.75803C23.928 10.4839 23.9999 11.2336 23.9999 11.9998C23.9999 12.8589 23.9095 13.6969 23.7375 14.5053C23.1533 17.2561 21.6269 19.658 19.5124 21.3578L19.5118 21.3572L16.0878 21.1824L15.6032 18.1574C17.0063 17.3345 18.1028 16.0468 18.6804 14.5053H12.2637V9.75803H18.774H23.7902Z"
              fill="#518EF8"/>
        <path d="M19.5113 21.3574L19.512 21.3581C17.4555 23.011 14.8432 24.0001 11.9995 24.0001C7.42957 24.0001 3.45639 21.4458 1.42957 17.6869L5.31836 14.5036C6.33175 17.2082 8.94077 19.1335 11.9995 19.1335C13.3142 19.1335 14.5459 18.7781 15.6027 18.1576L19.5113 21.3574Z"
              fill="#28B446"/>
        <path d="M19.6595 2.76262L15.772 5.94525C14.6782 5.26153 13.3852 4.86656 11.9999 4.86656C8.872 4.86656 6.21419 6.88017 5.25157 9.68175L1.34233 6.48131H1.34167C3.33883 2.63077 7.36211 0 11.9999 0C14.9116 0 17.5812 1.03716 19.6595 2.76262Z"
              fill="#F14336"/>
    </g>
    <defs>
        <clipPath id="clip0_37_68">
            <rect width="24" height="24" fill="white"/>
        </clipPath>
    </defs>
</svg>

<svg xmlns="http://www.w3.org/2000/svg" width="24" height="24" fill="none">
    <g clip-path="url(#a)">
        <path fill="#FBBB00" d="m5.319 14.504-.835 3.118-3.054.065A11.946 11.946 0 0 1 0 12c0-1.99.484-3.866 1.342-5.519l2.719.499 1.19 2.702A7.134 7.134 0 0 0 4.868 12c0 .881.16 1.725.452 2.504Z"/>
        <path fill="#518EF8" d="M23.79 9.758a12.028 12.028 0 0 1-.053 4.747 11.998 11.998 0 0 1-4.225 6.853l-3.424-.176-.485-3.025a7.152 7.152 0 0 0 3.077-3.652h-6.416V9.758H23.79Z"/>
        <path fill="#28B446" d="m19.511 21.357.001.001A11.95 11.95 0 0 1 11.999 24c-4.57 0-8.543-2.554-10.57-6.313l3.89-3.183a7.135 7.135 0 0 0 10.284 3.654l3.908 3.2Z"/>
        <path fill="#F14336" d="m19.66 2.763-3.888 3.182a7.137 7.137 0 0 0-10.52 3.736l-3.91-3.2A11.998 11.998 0 0 1 12 0a11.95 11.95 0 0 1 7.66 2.763Z"/>
    </g>
    <defs>
        <clipPath id="a">
            <path fill="#fff" d="M0 0h24v24H0z"/>
        </clipPath>
    </defs>
</svg>
